svg/Pictogram/pictograms-nps-land-all-terrain_trail.svg

<svg xmlns="http://www.w3.org/2000/svg" width="123.55" height="123.54" viewBox="-0.258 -0.548 123.547 123.539" enable-background="new -0.258 -0.548 123.547 123.539"><path d="m108.66 122.6c8.148 0 14.742-6.617 14.742-14.773v-94.01c0-8.156-6.594-14.758-14.742-14.758h-94c-8.18 0-14.773 6.602-14.773 14.758v94.01c0 8.156 6.594 14.773 14.773 14.773h94z"/><path d="m14.656 1.559c-6.766 0-12.273 5.5-12.273 12.258v94.01c0 6.781 5.508 12.281 12.273 12.281h94c6.758 0 12.258-5.5 12.258-12.281v-94.01c0-6.758-5.5-12.258-12.258-12.258h-94"/><g fill="#fff"><path d="m90.84 42.3v-12.735h-1.172c-3.516 0-6.375 2.852-6.375 6.367 0 3.523 2.859 6.367 6.375 6.367h1.172z"/><path d="m81.23 39.4l-5.562-11.125c-1.242-2.281-3.641-3.812-6.43-3.812h-12.914c-1.211 0-2.172.969-2.172 2.18s.961 2.172 2.172 2.172l12.914-.008c1.055 0 2.203.711 2.672 1.695l3.539 7.094 5.781 1.804"/><path d="m106.87 51.29c1.68.484 2.93 2.039 2.93 3.875l-9.406.008c-12.375 0-22.43 10.06-22.43 22.438h-30.61c0-9.945-6.469-18.383-15.422-21.328l-16.867-5.548 2.797-4.273c.984-1.492 2.711-2.477 4.633-2.477.445 0 .844.031 1.211.109l37.586 11.656c.461.133.938.219 1.453.219 1.695 0 3.172-.859 4.055-2.18l8.547-12.344 31.523 9.845"/><path d="m81.7 81.51c0-8.461 6.859-15.289 15.281-15.289 8.445 0 15.281 6.828 15.281 15.289 0 8.43-6.836 15.281-15.281 15.281-8.422 0-15.281-6.852-15.281-15.281m15.281 5.711c3.172 0 5.734-2.562 5.734-5.711 0-3.172-2.562-5.719-5.734-5.719-3.125 0-5.688 2.547-5.688 5.719.0001 3.148 2.563 5.711 5.688 5.711"/><path d="m9.719 79.871c0-9.266 7.523-16.805 16.812-16.805 9.305 0 16.797 7.539 16.797 16.805 0 9.289-7.492 16.82-16.797 16.82-9.289 0-16.812-7.531-16.812-16.82m16.851 6.305c3.453 0 6.273-2.812 6.273-6.289s-2.82-6.289-6.273-6.289c-3.492 0-6.289 2.812-6.289 6.289s2.797 6.289 6.289 6.289"/></g></svg>

<?xml version="1.0" encoding="iso-8859-1"?>
<!-- Generator: Adobe Illustrator 13.0.2, SVG Export Plug-In . SVG Version: 6.00 Build 14948)  -->
<!DOCTYPE svg PUBLIC "-//W3C//DTD SVG 1.1//EN" "http://www.w3.org/Graphics/SVG/1.1/DTD/svg11.dtd">
<svg version="1.1" id="Layer_1" xmlns="http://www.w3.org/2000/svg" xmlns:xlink="http://www.w3.org/1999/xlink" x="0px" y="0px"
	 width="123.547px" height="123.539px" viewBox="-0.258 -0.548 123.547 123.539"
	 style="enable-background:new -0.258 -0.548 123.547 123.539;" xml:space="preserve">
<g>
	<path d="M108.656,122.598c8.148,0,14.742-6.617,14.742-14.773V13.816c0-8.156-6.594-14.758-14.742-14.758h-94
		c-8.18,0-14.773,6.602-14.773,14.758v94.008c0,8.156,6.594,14.773,14.773,14.773H108.656z"/>
	<path d="M14.656,1.559c-6.766,0-12.273,5.5-12.273,12.258v94.008c0,6.781,5.508,12.281,12.273,12.281h94
		c6.758,0,12.258-5.5,12.258-12.281V13.816c0-6.758-5.5-12.258-12.258-12.258H14.656z"/>
	<g>
		<path style="fill:#FFFFFF;" d="M90.836,42.301V29.566h-1.172c-3.516,0-6.375,2.852-6.375,6.367c0,3.523,2.859,6.367,6.375,6.367
			H90.836z"/>
		<path style="fill:#FFFFFF;" d="M81.234,39.402l-5.562-11.125c-1.242-2.281-3.641-3.812-6.43-3.812H56.328
			c-1.211,0-2.172,0.969-2.172,2.18s0.961,2.172,2.172,2.172l12.914-0.008c1.055,0,2.203,0.711,2.672,1.695l3.539,7.094
			L81.234,39.402z"/>
		<path style="fill:#FFFFFF;" d="M106.875,51.293c1.68,0.484,2.93,2.039,2.93,3.875l-9.406,0.008
			c-12.375,0-22.43,10.062-22.43,22.438H47.359c0-9.945-6.469-18.383-15.422-21.328L15.07,50.738l2.797-4.273
			c0.984-1.492,2.711-2.477,4.633-2.477c0.445,0,0.844,0.031,1.211,0.109l37.586,11.656c0.461,0.133,0.938,0.219,1.453,0.219
			c1.695,0,3.172-0.859,4.055-2.18l8.547-12.344L106.875,51.293z"/>
		<path style="fill:#FFFFFF;" d="M81.703,81.512c0-8.461,6.859-15.289,15.281-15.289c8.445,0,15.281,6.828,15.281,15.289
			c0,8.43-6.836,15.281-15.281,15.281C88.562,96.793,81.703,89.941,81.703,81.512z M96.984,87.223c3.172,0,5.734-2.562,5.734-5.711
			c0-3.172-2.562-5.719-5.734-5.719c-3.125,0-5.688,2.547-5.688,5.719C91.297,84.66,93.859,87.223,96.984,87.223z"/>
		<path style="fill:#FFFFFF;" d="M9.719,79.871c0-9.266,7.523-16.805,16.812-16.805c9.305,0,16.797,7.539,16.797,16.805
			c0,9.289-7.492,16.82-16.797,16.82C17.242,96.691,9.719,89.16,9.719,79.871z M26.57,86.176c3.453,0,6.273-2.812,6.273-6.289
			s-2.82-6.289-6.273-6.289c-3.492,0-6.289,2.812-6.289,6.289S23.078,86.176,26.57,86.176z"/>
	</g>
</g>
</svg>
